Sources/FrostedUI/Resources/Icons.xcassets/messagesQuestion32.imageset/messages-question-32.svg

<svg width="32" height="32" viewBox="0 0 32 32" fill="none" xmlns="http://www.w3.org/2000/svg" data-fui-icon="true">
  <path
    d="M25.6689 4.25C27.5558 4.25 29.0859 5.78 29.0859 7.66699V16.333C29.0859 18.22 27.5558 19.75 25.6689 19.75H23.752V21.667C23.7518 23.5538 22.2226 25.0829 20.3359 25.083H14.1973L8.36621 28.3223C8.1341 28.451 7.85089 28.448 7.62207 28.3135C7.39329 28.1787 7.25207 27.9325 7.25195 27.667V25.083H6.33594C4.44925 25.0828 2.91912 23.5537 2.91895 21.667V13C2.91895 11.1131 4.44913 9.58321 6.33594 9.58301H8.58594V7.66699C8.58594 5.78025 10.1153 4.25037 12.002 4.25H25.6689ZM6.33594 11.083C5.27756 11.0832 4.41895 11.9416 4.41895 13V21.667C4.41912 22.7253 5.27766 23.5828 6.33594 23.583H8.00195C8.41606 23.583 8.75178 23.9189 8.75195 24.333V26.3916L13.6377 23.6777C13.7489 23.616 13.8748 23.5831 14.002 23.583H20.3359C21.3942 23.5829 22.2518 22.7253 22.252 21.667V19.0576C22.2505 19.0386 22.249 19.0194 22.249 19C22.249 18.9803 22.2505 18.9607 22.252 18.9414V13C22.252 11.9416 21.3943 11.0831 20.3359 11.083H6.33594ZM13.1875 19.1562C13.7398 19.1563 14.1875 19.604 14.1875 20.1562C14.1875 20.7085 13.7398 21.1562 13.1875 21.1562C12.6352 21.1562 12.1875 20.7085 12.1875 20.1562C12.1875 19.604 12.6352 19.1562 13.1875 19.1562ZM13.3115 13.0693C14.5609 13.0695 15.5614 14.09 15.5615 15.334C15.5614 16.331 14.9109 16.8542 14.4912 17.1396C14.3405 17.242 14.2243 17.3437 14.1377 17.46C14.0557 17.5703 13.9835 17.7157 13.9512 17.9307C13.8896 18.3401 13.508 18.6218 13.0986 18.5605C12.6891 18.499 12.4063 18.1175 12.4678 17.708C12.6121 16.7487 13.1716 16.2229 13.6475 15.8994L13.8496 15.7471C13.9029 15.7007 13.9443 15.6577 13.9756 15.6152C14.0257 15.547 14.0615 15.4671 14.0615 15.334C14.0614 14.905 13.7191 14.5695 13.3115 14.5693C12.9037 14.5693 12.5617 14.9049 12.5615 15.334C12.5614 15.7479 12.2255 16.0838 11.8115 16.084C11.3974 16.084 11.0617 15.7481 11.0615 15.334C11.0617 14.0899 12.0619 13.0693 13.3115 13.0693ZM12.002 5.75C10.9437 5.75037 10.0859 6.60868 10.0859 7.66699V9.58301H20.3359C22.2227 9.58315 23.752 11.1131 23.752 13V18.25H25.6689C26.7274 18.25 27.5859 17.3916 27.5859 16.333V7.66699C27.5859 6.60846 26.7274 5.75 25.6689 5.75H12.002Z"
    fill="currentColor"
  />
</svg>

<svg xmlns="http://www.w3.org/2000/svg" width="32" height="32" fill="none" data-fui-icon="true" viewBox="0 0 32 32"><path fill="currentColor" d="M25.669 4.25a3.417 3.417 0 0 1 3.417 3.417v8.666a3.417 3.417 0 0 1-3.417 3.417h-1.917v1.917a3.416 3.416 0 0 1-3.416 3.416h-6.139l-5.83 3.24a.75.75 0 0 1-1.115-.656v-2.584h-.916a3.417 3.417 0 0 1-3.417-3.416V13a3.417 3.417 0 0 1 3.417-3.417h2.25V7.667a3.417 3.417 0 0 1 3.416-3.417zM6.336 11.083A1.92 1.92 0 0 0 4.419 13v8.667c0 1.058.859 1.916 1.917 1.916h1.666a.75.75 0 0 1 .75.75v2.059l4.886-2.714a.75.75 0 0 1 .364-.095h6.334a1.916 1.916 0 0 0 1.916-1.916v-2.61a1 1 0 0 1 0-.116V13a1.917 1.917 0 0 0-1.916-1.917zm6.852 8.073a1 1 0 1 1 0 2 1 1 0 0 1 0-2m.123-6.087c1.25 0 2.25 1.021 2.25 2.265 0 .997-.65 1.52-1.07 1.806-.15.102-.267.204-.353.32a1 1 0 0 0-.187.47.75.75 0 0 1-1.483-.222c.144-.96.704-1.485 1.18-1.809l.202-.152a1 1 0 0 0 .126-.132.44.44 0 0 0 .085-.281.76.76 0 0 0-.75-.765.757.757 0 0 0-.75.765.75.75 0 0 1-1.5 0c0-1.244 1-2.265 2.25-2.265M12.003 5.75a1.917 1.917 0 0 0-1.916 1.917v1.916h10.25A3.417 3.417 0 0 1 23.752 13v5.25h1.917a1.917 1.917 0 0 0 1.917-1.917V7.667a1.917 1.917 0 0 0-1.917-1.917z"/></svg>
